githubassets/type-tablet.svg

<?xml version="1.0" encoding="UTF-8" standalone="no"?>
<svg
   width="180pt"
   height="180pt"
   version="1.0"
   viewBox="0 0 180 180"
   id="svg1077"
   sodipodi:docname="type-tablet.svg"
   inkscape:version="1.1.1 (3bf5ae0d25, 2021-09-20)"
   xmlns:inkscape="http://www.inkscape.org/namespaces/inkscape"
   xmlns:sodipodi="http://sodipodi.sourceforge.net/DTD/sodipodi-0.dtd"
   xmlns="http://www.w3.org/2000/svg"
   xmlns:svg="http://www.w3.org/2000/svg">
  <defs
     id="defs1081" />
  <sodipodi:namedview
     id="namedview1079"
     pagecolor="#ffffff"
     bordercolor="#666666"
     borderopacity="1.0"
     inkscape:pageshadow="2"
     inkscape:pageopacity="0.0"
     inkscape:pagecheckerboard="0"
     inkscape:document-units="pt"
     showgrid="false"
     inkscape:zoom="2.5721009"
     inkscape:cx="174.37108"
     inkscape:cy="182.34121"
     inkscape:window-width="1654"
     inkscape:window-height="1338"
     inkscape:window-x="1770"
     inkscape:window-y="23"
     inkscape:window-maximized="0"
     inkscape:current-layer="svg1077" />
  <g
     transform="matrix(0,-0.19479999,-0.13651169,0,212.86052,265.31999)"
     id="g1075">
    <path
       d="M 510.00002,1506.406 V 302.73192 c 0,-45.26189 16.26719,-57.73196 63.71134,-57.73196 H 1241 c 30.941,0 49,15.759 49,49 V 1508.0618 c 0,31.357 -16.47,46.9382 -49,46.9382 H 559.00003 c -33.299,0 -49.00001,-16.991 -49.00001,-48.594 z m 727.02718,-22.354 V 323.68702 H 565.6528 V 1484.052 Z M 1030.6288,294.31811 c 8.9494,0 8.4578,-17.02258 -0.092,-17.02258 l -257.47906,0.16263 c -9.09841,0 -9.7599,16.85995 -0.35976,16.85995"
       id="path1073"
       sodipodi:nodetypes="sccssssssccccccccc" />
  </g>
</svg>

<?xml version="1.0" encoding="UTF-8"?>
<svg width="180pt" height="180pt" version="1.0" viewBox="0 0 180 180" xmlns="http://www.w3.org/2000/svg">
<g transform="matrix(0 -.1948 -.13651 0 212.86 265.32)">
<path d="m510 1506.4v-1203.7c0-45.262 16.267-57.732 63.711-57.732h667.29c30.941 0 49 15.759 49 49v1214.1c0 31.357-16.47 46.938-49 46.938h-682c-33.299 0-49-16.991-49-48.594zm727.03-22.354v-1160.4h-671.37v1160.4zm-206.4-1189.7c8.9494 0 8.4578-17.023-0.092-17.023l-257.48 0.16263c-9.0984 0-9.7599 16.86-0.35976 16.86"/>
</g>
</svg>
